!!!!SEGMENT: pl-wtm--r-1002_krogulski-jozef-wladyslaw--hymn.krn
!!!cenid: 18xx:2105
!!!COM: Krogulski, Józef Władysław
!!!COM-rismid: pe30001797
!!!CDT: 1815/10/04-1842/01/09
!!!CNT: Polish
!!!OTL: Hymn
!!!PDT:
!!!AGN: Sacred; Hymn
!!!SMS-siglum: PL-Wtm
!!!SMS-shelfmark: R 1002
!!!SMS-shelfwork: W
!!!SMS-variant:
!!!SMS-altvar:
!!!NIFC-rismid: 1001085574
!!!URL-scan: http://repozytorium.nifc.pl/skany/pl-wtm-nut--r1002
!!!ONB-nifc:
!!!key:
**kern	**kern	**kern	**text	**dynam	**kern	**text	**dynam	**kern	**dynam	**kern	**text	**dynam
*part5	*part5	*part4	*part4	*part4	*part3	*part3	*part3	*part2	*part2	*part1	*part1	*part1
*staff6	*staff5	*staff4	*staff4	*	*staff3	*staff3	*	*staff2	*	*staff1	*staff1	*
*Iorgan	*Iorgan	*Iempty	*	*	*Itenor	*	*	*Ialto	*	*Isoprn	*	*
*I"[Organo]	*I"[Organo]	*I"[Bass]	*	*	*I"[Tenor]	*	*	*I"[Alto]	*	*I"[Soprano]	*	*
*clefF4	*clefG2	*clefF4	*	*	*clefG2	*	*	*clefG2	*	*clefG2	*	*
*	*	*	*	*	*ITrd7c12	*	*	*	*	*	*	*
*k[b-e-a-]	*k[b-e-a-]	*k[b-e-a-]	*	*	*k[b-e-a-]	*	*	*k[b-e-a-]	*	*k[b-e-a-]	*	*
*E-:	*E-:	*E-:	*	*	*E-:	*	*	*E-:	*	*E-:	*	*
*M4/4	*M4/4	*M4/4	*	*	*M4/4	*	*	*M4/4	*	*M4/4	*	*
*met(c)	*met(c)	*met(c)	*	*	*met(c)	*	*	*met(c)	*	*met(c)	*	*
=1	=1	=1	=1	=1	=1	=1	=1	=1	=1	=1	=1	=1
*2\right	*2\right	*	*	*	*	*	*	*	*	*	*	*
!LO:TX:t=P:problem:all\right	!LO:TX:a:t=Moderato.	!LO:TX:a:t=Basso solo.	!	!	!LO:TX:t=P:problem:partia T zapisana oktawe niżej ze względu na brak przenośnika oktawowego przy kluczu	!	!	!	!	!LO:TX:t=P:problem:wszystkie partie solowe zapisane na pięcioliniach chóralnych (ustalone z EZ 2021-05-04)	!	!
!LO:TX:t=P:problem:zapis wysokości klucza nieprezycyjny	!	!LO:TX:t=P:problem:zapis wysokości klucza nieprezycyjny	!	!	!	!	!	!	!	!	!	!
!	!	!LO:TX:t=W Imie Ojca, Syna i Ducha Swiętego	!	!	!	!	!	!	!	!	!	!
4E-\ 4G	4e-/ 4b-	1r	.	.	1ryy	.	.	1ryy	.	1ryy	.	.
4BB-\ 4F	4d/ 4b-	.	.	.	.	.	.	.	.	.	.	.
4E-\ 4G	4e-/ 4b-	.	.	.	.	.	.	.	.	.	.	.
4AA-\ 4A-	4e-/ 4cc	.	.	.	.	.	.	.	.	.	.	.
=2	=2	=2	=2	=2	=2	=2	=2	=2	=2	=2	=2	=2
2E-\ 2G	2e-/ 2b-	1r	.	.	1ryy	.	.	1ryy	.	1ryy	.	.
4E-\ 4B-	4e-/ 4g	.	.	.	.	.	.	.	.	.	.	.
4E-\ 4B-	4e-/ 4g	.	.	.	.	.	.	.	.	.	.	.
=3	=3	=3	=3	=3	=3	=3	=3	=3	=3	=3	=3	=3
*^	*^	*	*	*	*	*	*	*	*	*	*	*
4.A-/	2BB-\	4b-/	2d\	1r	.	.	1ryy	.	.	1ryy	.	1ryy	.	.
.	.	8f/L	.	.	.	.	.	.	.	.	.	.	.	.
8B-/	.	8g/J	.	.	.	.	.	.	.	.	.	.	.	.
4G/	4E-\	4e-/	4e-\	.	.	.	.	.	.	.	.	.	.	.
8A-/L	4E-\	8cc/L	4e-\	.	.	.	.	.	.	.	.	.	.	.
8G/J	.	8b-/J	.	.	.	.	.	.	.	.	.	.	.	.
=4	=4	=4	=4	=4	=4	=4	=4	=4	=4	=4	=4	=4	=4	=4
4F/	2BB-\	4b-/	2d\	2r	.	.	1ryy	.	.	1ryy	.	1ryy	.	.
8B-/L	.	8f/L	.	.	.	.	.	.	.	.	.	.	.	.
8A-/J	.	8g/J	.	.	.	.	.	.	.	.	.	.	.	.
4G/	4E-\	4e-/	4e-\	4r	.	.	.	.	.	.	.	.	.	.
!	!	!	!	!LO:TX:t=P:problem:all\right	!	!	!	!	!	!	!	!	!	!
!	!	!	!	!LO:TX:a:t=Recitando	!	!	!	!	!	!	!	!	!	!
!	!	!	!	!LO:TX:t=Hymn&colon; Muz&colon; Krogulskiego	!	!	!	!	!	!	!	!	!	!
4r	4ryy	4r	4ryy	4E-\	Kto	f	.	.	.	.	.	.	.	.
*v	*v	*	*	*	*	*	*	*	*	*	*	*	*	*
*	*v	*v	*	*	*	*	*	*	*	*	*	*	*
=5	=5	=5	=5	=5	=5	=5	=5	=5	=5	=5	=5	=5
2r	2r	4.B-\	ty-	.	1ryy	.	.	1ryy	.	1ryy	.	.
.	.	8B-\	-lko	.	.	.	.	.	.	.	.	.
4r	4r	4B-\	Pa-	.	.	.	.	.	.	.	.	.
4E-\ 4G	4e-/ 4b-	4B-\	-nie	.	.	.	.	.	.	.	.	.
!!LO:LB:g=original
=6	=6	=6	=6	=6	=6	=6	=6	=6	=6	=6	=6	=6
2AA-\ 2A-	2e-/ 2cc	8c\	Twą	.	1ryy	.	.	1ryy	.	1ryy	.	.
.	.	8A-\	wszech-	.	.	.	.	.	.	.	.	.
.	.	8B-\	-moc-	.	.	.	.	.	.	.	.	.
.	.	8c\	-ność	.	.	.	.	.	.	.	.	.
4E-\ 4G	4e-/ 4b-	(8B-\L	czu-	.	.	.	.	.	.	.	.	.
.	.	8G\J)	.	.	.	.	.	.	.	.	.	.
4r	4r	16B-\	-je	.	.	.	.	.	.	.	.	.
.	.	16r	.	.	.	.	.	.	.	.	.	.
.	.	8E-\	kto	.	.	.	.	.	.	.	.	.
=7	=7	=7	=7	=7	=7	=7	=7	=7	=7	=7	=7	=7
2r	2r	4B-\	do-	.	1ryy	.	.	1ryy	.	1ryy	.	.
.	.	8B-\	-broć	.	.	.	.	.	.	.	.	.
.	.	8B-\	i	.	.	.	.	.	.	.	.	.
4r	4r	4B-\	wiel-	.	.	.	.	.	.	.	.	.
4E-\ 4G	4e-/ 4b-	4B-\	-kość	.	.	.	.	.	.	.	.	.
=8	=8	=8	=8	=8	=8	=8	=8	=8	=8	=8	=8	=8
2AA-\ 2A-	2e-/ 2cc	8c\L	Two-	.	1ryy	.	.	1ryy	.	1ryy	.	.
.	.	8A-\J	.	.	.	.	.	.	.	.	.	.
.	.	8B-\	-ją	.	.	.	.	.	.	.	.	.
.	.	8c\	poj-	.	.	.	.	.	.	.	.	.
4E-\ 4G	4e-/ 4b-	4B-\	-mu-	.	.	.	.	.	.	.	.	.
4r	4r	16E-\	-je	.	.	.	.	.	.	.	.	.
.	.	16r	.	.	.	.	.	.	.	.	.	.
.	.	8E-\	Ten	.	.	.	.	.	.	.	.	.
=9	=9	=9	=9	=9	=9	=9	=9	=9	=9	=9	=9	=9
2BBn/	2Bn/	4BBn/	bu-	.	1ryy	.	.	1ryy	.	1ryy	.	.
.	.	8BB/	-dząc	.	.	.	.	.	.	.	.	.
.	.	8BB/	się	.	.	.	.	.	.	.	.	.
!	!	!	!LO:SIC:v:l:s=łą	!	!	!	!	!	!	!	!	!
2C/	2c/	4C/	ła-	.	.	.	.	.	.	.	.	.
.	.	4C/	-czy	.	.	.	.	.	.	.	.	.
!!LO:LB:g=original
=10	=10	=10	=10	=10	=10	=10	=10	=10	=10	=10	=10	=10
4D\	4B-/ 4f 4a-	8A-\	do	.	1r	.	.	1r	.	1r	.	.
.	.	8F\	wes-	.	.	.	.	.	.	.	.	.
4E-\	4B-/ 4e- 4g	8G\	-tchnie-	.	.	.	.	.	.	.	.	.
.	.	8E-\	-nia	.	.	.	.	.	.	.	.	.
2AA-/	2c-X/ 2e- 2a- 2cc-X	4c-X\	swe-	.	.	.	.	.	.	.	.	.
.	.	8c-\	-go,	.	.	.	.	.	.	.	.	.
.	.	8r	.	.	.	.	.	.	.	.	.	.
=11	=11	=11	=11	=11	=11	=11	=11	=11	=11	=11	=11	=11
2AA-\ 2A-\	2r	2r	.	.	1r	.	.	1r	.	1r	.	.
2AAn\ 2An\	2c/ 2e- 2f#X	4E-\	w I-	.	.	.	.	.	.	.	.	.
!	!	!	!LO:SIC:v:l:s=-mię	!	!	!	!	!	!	!	!	!
.	.	4E-\	-mie	.	.	.	.	.	.	.	.	.
=12	=12	=12	=12	=12	=12	=12	=12	=12	=12	=12	=12	=12
*^	*	*	*	*	*	*	*	*	*	*	*	*
!	!	!	!	!	!	!	!	!	!LO:TX:a:t=Coro	!	!	!	!
2B-\	[2BB-\	2e-/ 2g	4G\	Oj-	.	1r	.	.	1r	.	1r	.	.
.	.	.	8E-\	-ca	.	.	.	.	.	.	.	.	.
.	.	.	8r	.	.	.	.	.	.	.	.	.	.
2G\	2BB-\_	2e-/ 2b-	4B-\	Sy-	.	.	.	.	.	.	.	.	.
.	.	.	8G\	-na	.	.	.	.	.	.	.	.	.
.	.	.	8E-\	i	.	.	.	.	.	.	.	.	.
=13	=13	=13	=13	=13	=13	=13	=13	=13	=13	=13	=13	=13	=13
*	*	*^	*	*	*	*	*	*	*	*	*	*	*
4A-/	2BB-\]	4cc/	4e-\	4c\	Du-	.	1r	.	.	1r	.	1r	.	.
4F\	.	8b-/L	4d\	8B-\	-cha	.	.	.	.	.	.	.	.	.
.	.	8a-/J	.	8A-\	świę-	.	.	.	.	.	.	.	.	.
.	.	.	.	8qA-/	.	.	.	.	.	.	.	.	.	.
4G\	4E-\	4g/	4e-\	4G\	-te-	.	.	.	.	.	.	.	.	.
4r	4ryy	4r	4ryy	8G\	-go	.	.	.	.	.	.	.	.	.
.	.	.	.	8r	.	.	.	.	.	.	.	.	.	.
*v	*v	*	*	*	*	*	*	*	*	*	*	*	*	*
=14	=14	=14	=14	=14	=14	=14	=14	=14	=14	=14	=14	=14	=14
!	!	!	!LO:TX:a:t=Con Basso Coro	!	!	!	!	!	!	!	!LO:TX:a:t=religioso	!	!
!	!	!	!	!	!	!	!	!	!	!LO:DY:a	!	!	!
4E-\ 4G\	2.b-/	4e-\	4E-\	.	p	4G/	.	p	4e-/	p	4b-\	W I-	p
!	!	!	!	!	!	!	!	!	!	!	!	!LO:SIC:v:l:s=-mię	!
4BB-\ 4F\	.	4d\	4BB-/	.	.	4F/	.	.	4d/	.	4b-\	-mie	.
4E-\ 4G\	.	4e-\	4E-\	.	.	4G/	.	.	4e-/	.	4b-\	Oj-	.
4AA-\ 4A-\	4e-/ 4cc/	4ryy	4AA-/	.	.	4A-/	.	.	4e-/	.	4cc\	-ca	.
=15	=15	=15	=15	=15	=15	=15	=15	=15	=15	=15	=15	=15	=15
*^	*	*	*	*	*	*	*	*	*	*	*	*	*
2G/	1E-	2b-/	1e-	2E-\	.	.	2G/	.	.	2e-/	.	2b-\	Sy-	.
2B-/	.	2g/	.	4E-\	.	.	4B-\	.	.	4e-/	.	4g/	-na	.
.	.	.	.	4E-\	.	.	4B-\	.	.	4e-/	.	4g/	i	.
!!LO:PB:g=original
=16	=16	=16	=16	=16	=16	=16	=16	=16	=16	=16	=16	=16	=16	=16
4.A-/	2BB-\	4b-/	2d\	2BB-/	.	.	(4.A-/	Du-	.	2d/	.	(4b-/	Du-	.
.	.	8f/L	.	.	.	.	.	.	.	.	.	8f/L	.	.
8B-/	.	8g/J	.	.	.	.	8B-/)	.	.	.	.	8g/J)	.	.
4G/	2E-\	4e-/	4e-\	4E-\	.	.	4G/	-cha	.	4e-/	.	4e-/	-cha	.
!	!	!	!	!	!	!	!	!	!	!	!	!	!LO:SIC:v:l:s=świę-	!
8A-/L	.	8cc/L	4e-\	4E-\	.	.	8A-/L	świę-	.	4e-/	.	8cc\L	swię-	.
8G/J	.	8b-/J	.	.	.	.	8G/J	.	.	.	.	8b-\J	.	.
=17	=17	=17	=17	=17	=17	=17	=17	=17	=17	=17	=17	=17	=17	=17
4F/	2BB-\	4b-/	2d\	2BB-/	.	.	(4F/	-te-	.	2d/	.	(4b-\	-te-	.
8B-/L	.	8f/L	.	.	.	.	8B-/L	.	.	.	.	8f/L	.	.
8A-/J	.	8g/J	.	.	.	.	8A-/J)	.	.	.	.	8g/J)	.	.
4G/	4E-\	4e-/	2ryy	4E-\	.	.	4G/	-go	.	4e-/	.	4e-/	-go	.
!	!	!	!	!	!	!	!	!	!	!	!	!LO:TX:a:t=Soprano Solo	!	!
4r	4ryy	4r	.	4r	.	.	4r	.	.	4r	.	4e-/	Czy	.
*v	*v	*	*	*	*	*	*	*	*	*	*	*	*	*
*	*v	*v	*	*	*	*	*	*	*	*	*	*	*
=18	=18	=18	=18	=18	=18	=18	=18	=18	=18	=18	=18	=18
*	*	*	*	*	*	*	*	*	*	*^	*	*
1AA- 1A-	8r	1r	.	.	1r	.	.	1r	.	2ee-\	1r	ła-	.
.	(8c/L	.	.	.	.	.	.	.	.	.	.	.	.
.	8e-/	.	.	.	.	.	.	.	.	.	.	.	.
.	8a-/J)	.	.	.	.	.	.	.	.	.	.	.	.
.	(8cc/L	.	.	.	.	.	.	.	.	8ff\L	.	.	.
.	8a-/	.	.	.	.	.	.	.	.	8ee-\J	.	.	.
.	8e-/	.	.	.	.	.	.	.	.	8cc\L	.	-ski	.
.	8c/J)	.	.	.	.	.	.	.	.	8a-\J	.	do-	.
=19	=19	=19	=19	=19	=19	=19	=19	=19	=19	=19	=19	=19	=19
2EE-/ 2E-	8r	1r	.	.	1r	.	.	1r	.	(4.cc/	1r	-zna-	.
.	(8d-X/L	.	.	.	.	.	.	.	.	.	.	.	.
.	8e-/	.	.	.	.	.	.	.	.	.	.	.	.
.	8g/J)	.	.	.	.	.	.	.	.	8b-/)	.	.	.
2AA-\ 2A-\	8r	.	.	.	.	.	.	.	.	4a-/	.	-jem	.
.	(8c/L	.	.	.	.	.	.	.	.	.	.	.	.
.	8e-/	.	.	.	.	.	.	.	.	4r	.	.	.
.	8a-/J)	.	.	.	.	.	.	.	.	.	.	.	.
=20	=20	=20	=20	=20	=20	=20	=20	=20	=20	=20	=20	=20	=20
1E-	8r	1r	.	.	1r	.	.	1r	.	(4.g/	1r	czy-	.
.	(8B-/L	.	.	.	.	.	.	.	.	.	.	.	.
.	8e-/	.	.	.	.	.	.	.	.	.	.	.	.
.	8g/J)	.	.	.	.	.	.	.	.	8a-/)	.	.	.
.	(8b-/L	.	.	.	.	.	.	.	.	8b-/L	.	-li	.
.	8g/	.	.	.	.	.	.	.	.	8g/J	.	.	.
.	8e-/	.	.	.	.	.	.	.	.	8ff\L	.	nie-	.
.	8B-/J)	.	.	.	.	.	.	.	.	8ee-\J	.	.	.
*	*	*	*	*	*	*	*	*	*	*v	*v	*	*
!!LO:LB:g=original
=21	=21	=21	=21	=21	=21	=21	=21	=21	=21	=21	=21	=21
2E-\ 2c-X\	8r	1ryy	.	.	1ryy	.	.	1ryy	.	2dd\	-do-	.
.	(8dn/L	.	.	.	.	.	.	.	.	.	.	.
.	8f/	.	.	.	.	.	.	.	.	.	.	.
.	8a-/J	.	.	.	.	.	.	.	.	.	.	.
4E-\ 4B-\	8g/L	.	.	.	.	.	.	.	.	8ee-\	-li	.
.	8e-/	.	.	.	.	.	.	.	.	8r	.	.
4r	8d/	.	.	.	.	.	.	.	.	8ee-\	czy	.
.	8d-X/J)	.	.	.	.	.	.	.	.	8ee-\	się	.
=22	=22	=22	=22	=22	=22	=22	=22	=22	=22	=22	=22	=22
*	*	*	*	*	*	*	*	*	*	*^	*	*
1AA- 1A-	(8c/L	1ryy	.	.	1ryy	.	.	1ryy	.	2ee-\	2.ryy	du-	.
.	8e-/	.	.	.	.	.	.	.	.	.	.	.	.
.	8a-/	.	.	.	.	.	.	.	.	.	.	.	.
.	8e-/J	.	.	.	.	.	.	.	.	.	.	.	.
.	8cc/L	.	.	.	.	.	.	.	.	16ff\LL	.	.	.
.	.	.	.	.	.	.	.	.	.	16ee-\	.	.	.
.	8a-/	.	.	.	.	.	.	.	.	16dd\	.	.	.
.	.	.	.	.	.	.	.	.	.	16ee-\JJ	.	.	.
.	8e-/	.	.	.	.	.	.	.	.	16ff\LL	16aa-/	sza	.
.	.	.	.	.	.	.	.	.	.	16ee-\	8ryy	.	.
.	8c/J)	.	.	.	.	.	.	.	.	16cc\	.	.	.
.	.	.	.	.	.	.	.	.	.	16a-\JJ	16a-/	.	.
*	*	*	*	*	*	*	*	*	*	*v	*v	*	*
=23	=23	=23	=23	=23	=23	=23	=23	=23	=23	=23	=23	=23
2EE-/ 2E-	8r	1ryy	.	.	1ryy	.	.	1ryy	.	(4.cc\	cie-	.
.	8d-X/L	.	.	.	.	.	.	.	.	.	.	.
.	8e-/	.	.	.	.	.	.	.	.	.	.	.
.	8g/J	.	.	.	.	.	.	.	.	8b-\)	.	.
2AA-/ 2A-	8r	.	.	.	.	.	.	.	.	4a-/	-szy,	.
.	8c/L	.	.	.	.	.	.	.	.	.	.	.
.	8e-/	.	.	.	.	.	.	.	.	4r	.	.
.	8a-/J	.	.	.	.	.	.	.	.	.	.	.
=24	=24	=24	=24	=24	=24	=24	=24	=24	=24	=24	=24	=24
!	!	!	!	!	!	!	!	!	!	!LO:TX:a:t=con duolo	!	!
2GG/ 2G	8r	1ryy	.	.	1ryy	.	.	1ryy	.	2cc\	czy	.
.	(8e-/L	.	.	.	.	.	.	.	.	.	.	.
.	8g/	.	.	.	.	.	.	.	.	.	.	.
.	8cc/J)	.	.	.	.	.	.	.	.	.	.	.
2GG/ 2G	8r	.	.	.	.	.	.	.	.	4.ee-^<\	ser-	.
.	(8f/L	.	.	.	.	.	.	.	.	.	.	.
.	8g/	.	.	.	.	.	.	.	.	.	.	.
.	8bn/J)	.	.	.	.	.	.	.	.	8dd\	-ce	.
!!LO:LB:g=original
=25	=25	=25	=25	=25	=25	=25	=25	=25	=25	=25	=25	=25
(2C\ 2A-\	8r	1ryy	.	.	1ryy	.	.	1ryy	.	2dd\	bo-	.
.	(8d/L	.	.	.	.	.	.	.	.	.	.	.
.	8f/	.	.	.	.	.	.	.	.	.	.	.
.	8bn/J)	.	.	.	.	.	.	.	.	.	.	.
4C\) 4G\	8r	.	.	.	.	.	.	.	.	8cc\	-li	.
.	(8e-/L	.	.	.	.	.	.	.	.	8r	.	.
4r	8g/	.	.	.	.	.	.	.	.	8r	.	.
.	8cc/J)	.	.	.	.	.	.	.	.	8cc\	Mó-	.
=26	=26	=26	=26	=26	=26	=26	=26	=26	=26	=26	=26	=26
!	!	!	!	!	!	!	!	!	!	!	!LO:SIC:v:l:s=-wi-	!
4A-\	(8a-\L 8cc	1ryy	.	.	1ryy	.	.	1ryy	.	4cc\	-wie-	.
.	8e-\	.	.	.	.	.	.	.	.	.	.	.
4E-\	8g\ 8b-	.	.	.	.	.	.	.	.	8ee-\	-my	.
.	8e-\J)	.	.	.	.	.	.	.	.	8ee-\	przy-	.
4A-\	(8a-\L 8cc	.	.	.	.	.	.	.	.	4a-/	-cho-	.
.	8e-\	.	.	.	.	.	.	.	.	.	.	.
4E-\	8g\ 8b-	.	.	.	.	.	.	.	.	8b-/	-dząc	.
.	8e-\J)	.	.	.	.	.	.	.	.	8b-/	do	.
=27	=27	=27	=27	=27	=27	=27	=27	=27	=27	=27	=27	=27
4A-\	(8a-\L 8cc	1ryy	.	.	1ryy	.	.	1ryy	.	4cc\	Tro-	.
.	8e-\	.	.	.	.	.	.	.	.	.	.	.
4E-\	8g\ 8b-	.	.	.	.	.	.	.	.	8ee-\	-nu	.
.	8e-\J)	.	.	.	.	.	.	.	.	8ee-\	Two-	.
*	*rep	*	*	*	*	*	*	*	*	*	*	*
4A-\	(8a-\L 8cc	.	.	.	.	.	.	.	.	4a-/	-je-	.
.	8e-\	.	.	.	.	.	.	.	.	.	.	.
4E-\	8g\ 8b-	.	.	.	.	.	.	.	.	4b-/	-go	.
.	8e-\J)	.	.	.	.	.	.	.	.	.	.	.
*	*Xrep	*	*	*	*	*	*	*	*	*	*	*
=28	=28	=28	=28	=28	=28	=28	=28	=28	=28	=28	=28	=28
2AA-/ 2A-	(8a-\L 8cc	1ryy	.	.	1ryy	.	.	1ryy	.	2r	.	.
.	8e-\	.	.	.	.	.	.	.	.	.	.	.
.	8a-\	.	.	.	.	.	.	.	.	.	.	.
.	8cc\J)	.	.	.	.	.	.	.	.	.	.	.
!	!	!	!	!	!	!	!	!	!	!LO:TX:a:t=maestoso	!	!
!	!	!	!	!	!	!	!	!	!	!	!	!LO:DY:b
2AAn/ 2An	8r	.	.	.	.	.	.	.	.	4ee-\	w I-	f
.	(8e-\L	.	.	.	.	.	.	.	.	.	.	.
!	!	!	!	!	!	!	!	!	!	!	!LO:SIC:v:l:s=mię	!
.	8f#X\	.	.	.	.	.	.	.	.	4ee-\	-mie	.
.	8cc\J)	.	.	.	.	.	.	.	.	.	.	.
!!LO:PB:g=original
=29	=29	=29	=29	=29	=29	=29	=29	=29	=29	=29	=29	=29
[1BB- [1B-	8r	1r	.	.	1r	.	.	1r	.	4ee-\	Oj-	.
.	(8e-/L	.	.	.	.	.	.	.	.	.	.	.
.	8g/	.	.	.	.	.	.	.	.	8b-\	-ca	.
.	8b-/J	.	.	.	.	.	.	.	.	8r	.	.
.	8ee-/L	.	.	.	.	.	.	.	.	4gg\	Sy-	.
.	8b-/	.	.	.	.	.	.	.	.	.	.	.
.	8g/	.	.	.	.	.	.	.	.	8ee-\	-na	.
.	8e-/J)	.	.	.	.	.	.	.	.	8b-\	i	.
=30	=30	=30	=30	=30	=30	=30	=30	=30	=30	=30	=30	=30
2BB-\] 2B-\]	8r	1r	.	.	1r	.	.	1r	.	4cc\	Du-	.
.	(8dn/L	.	.	.	.	.	.	.	.	.	.	.
.	8f/	.	.	.	.	.	.	.	.	8b-\	-cha	.
.	8a-/J	.	.	.	.	.	.	.	.	8cc\	świę-	.
4E-\	8g/L	.	.	.	.	.	.	.	.	4b-/	-te-	.
.	8e-/	.	.	.	.	.	.	.	.	.	.	.
4r	8g/	.	.	.	.	.	.	.	.	8g/	-go.	.
.	8a-/J)	.	.	.	.	.	.	.	.	8r	.	.
=31	=31	=31	=31	=31	=31	=31	=31	=31	=31	=31	=31	=31
!	!	!	!	!	!	!	!	!	!	!LO:TX:a:t=tutti	!	!
!	!	!	!	!	!	!	!LO:DY:t=p.	!	!	!	!	!LO:DY:b
!	!	!	!	!LO:DY:t=p.	!	!	!LO:DY:b	!	!LO:DY:t=p.	!	!	!LO:DY:t=p.
4E-\	(8g/L 8b-	4E-\	.	p	4G/	.	p	4e-/	p	4b-\	W I-	p
.	8e-/	.	.	.	.	.	.	.	.	.	.	.
!	!	!	!	!	!	!	!	!	!	!	!LO:SIC:v:l:s=mię	!
4BB-/	8f/ 8b-	4BB-/	.	.	4F/	.	.	4d/	.	4b-\	-mie	.
.	8d/J	.	.	.	.	.	.	.	.	.	.	.
4E-/	8g/L 8b-	4E-\	.	.	4G/	.	.	4e-/	.	4b-\	Oj-	.
.	8e-/	.	.	.	.	.	.	.	.	.	.	.
4AA-/	8a-/ 8cc	4AA-/	.	.	4A-/	.	.	4e-/	.	4cc\	-ca	.
.	8e-/J)	.	.	.	.	.	.	.	.	.	.	.
=32	=32	=32	=32	=32	=32	=32	=32	=32	=32	=32	=32	=32
1EE- 1E-	(8g/L 8b-	2E-\	.	.	2G/	.	.	2e-/	.	2b-\	Sy-	.
.	8e-/	.	.	.	.	.	.	.	.	.	.	.
.	8B-/	.	.	.	.	.	.	.	.	.	.	.
.	8e-/J	.	.	.	.	.	.	.	.	.	.	.
.	8e-/L 8g	4E-\	.	.	4B-\	.	.	4e-/	.	4g/	-na	.
.	8B-/	.	.	.	.	.	.	.	.	.	.	.
.	8e-/ 8g	4E-\	.	.	4B-\	.	.	4e-/	.	4g/	i	.
.	8B-/J)	.	.	.	.	.	.	.	.	.	.	.
=33	=33	=33	=33	=33	=33	=33	=33	=33	=33	=33	=33	=33
2BB-/	(8d/L 8b-	2BB-/	.	.	(4.A-\	.	.	2d/	.	(4b-/	Du-	.
.	8B-/	.	.	.	.	.	.	.	.	.	.	.
.	8d/ 8f	.	.	.	.	.	.	.	.	8f/L	.	.
.	8B-/J 8g	.	.	.	8B-/)	.	.	.	.	8g/J	.	.
2E-\	8e-/L	4E-\	.	.	4G/	.	.	4e-/	.	4e-/)	.	.
.	8g/	.	.	.	.	.	.	.	.	.	.	.
.	8cc/	4E-\	.	.	8A-/L	.	.	4e-/	.	8cc\L	-cha	.
.	8b-/J)	.	.	.	8G/J	.	.	.	.	8b-\J	.	.
=34	=34	=34	=34	=34	=34	=34	=34	=34	=34	=34	=34	=34
2BB-/	(8b-/L	2BB-/	.	.	(4F/	.	.	2d/	.	(4b-\	świę-	.
.	8B-/	.	.	.	.	.	.	.	.	.	.	.
.	8d/ 8f	.	.	.	8B-/L	.	.	.	.	8f/L	-te-	.
.	8B-/J 8g	.	.	.	8A-/J)	.	.	.	.	8g/J)	.	.
2E-\	8G/L 8e-	4E-\	.	.	4G/	.	.	4e-/	.	4e-/	-go	.
.	8B-/	.	.	.	.	.	.	.	.	.	.	.
!	!	!	!	!	!LO:TX:a:t=Solo	!	!	!	!	!	!	!
.	8e-/	4r	.	.	8B-/	Czy-	.	4r	.	4r	.	.
.	8g/J)	.	.	.	8B-/	-je-	.	.	.	.	.	.
!!LO:LB:g=original
=35	=35	=35	=35	=35	=35	=35	=35	=35	=35	=35	=35	=35
!	!	!	!	!	!LO:TX:a:t=Tenor Solo	!	!	!	!	!	!	!
8BB-/	8r	1ryy	.	.	(2B-\	-ste-	.	1ryy	.	1ryy	.	.
8r	8d/ 8f	.	.	.	.	.	.	.	.	.	.	.
8B-\	8r	.	.	.	.	.	.	.	.	.	.	.
8r	8d/ 8f	.	.	.	.	.	.	.	.	.	.	.
8BB-/	8r	.	.	.	8c\L	.	.	.	.	.	.	.
8r	8d/ 8f	.	.	.	8An\J)	.	.	.	.	.	.	.
8B-\	8r	.	.	.	8B-\L	-śmy	.	.	.	.	.	.
8r	8d/ 8f	.	.	.	8d\J	.	.	.	.	.	.	.
=36	=36	=36	=36	=36	=36	=36	=36	=36	=36	=36	=36	=36
2FF/ 2F	8r	1ryy	.	.	4.f\	w do-	.	1ryy	.	1ryy	.	.
.	(8e-/L	.	.	.	.	.	.	.	.	.	.	.
.	8f/	.	.	.	.	.	.	.	.	.	.	.
.	8an/J)	.	.	.	8e-\	.	.	.	.	.	.	.
2BB-/ 2B-	8r	.	.	.	4d\	-mu	.	.	.	.	.	.
.	(8d/L	.	.	.	.	.	.	.	.	.	.	.
.	8f/	.	.	.	4r	.	.	.	.	.	.	.
.	8b-/J)	.	.	.	.	.	.	.	.	.	.	.
=37	=37	=37	=37	=37	=37	=37	=37	=37	=37	=37	=37	=37
1E-	8r	1ryy	.	.	2B-\	czy-	.	1ryy	.	1ryy	.	.
.	(8B-/L	.	.	.	.	.	.	.	.	.	.	.
.	8e-/	.	.	.	.	.	.	.	.	.	.	.
.	8g/J	.	.	.	.	.	.	.	.	.	.	.
.	8b-/L	.	.	.	8c\L	-li	.	.	.	.	.	.
.	8g/	.	.	.	8An\J	.	.	.	.	.	.	.
.	8e-/	.	.	.	8B-\L	w po-	.	.	.	.	.	.
.	8B-/J)	.	.	.	8g\J	.	.	.	.	.	.	.
=38	=38	=38	=38	=38	=38	=38	=38	=38	=38	=38	=38	=38
2F\	8r	1ryy	.	.	(4.f\	-dró-	.	1ryy	.	1ryy	.	.
.	8e-/L	.	.	.	.	.	.	.	.	.	.	.
.	8f/	.	.	.	.	.	.	.	.	.	.	.
.	8an/J	.	.	.	8e-\)	.	.	.	.	.	.	.
2F#X\	8r	.	.	.	8d\	-ży	.	.	.	.	.	.
.	8c/L	.	.	.	8r	.	.	.	.	.	.	.
.	8d/	.	.	.	8d\	Czy	.	.	.	.	.	.
!	!	!	!	!	!	!	!LO:DY:a	!	!	!	!	!
.	8a/J	.	.	.	8d\	do-	p	.	.	.	.	.
=39	=39	=39	=39	=39	=39	=39	=39	=39	=39	=39	=39	=39
1GG 1G	8B-/L	1ryy	.	.	(4.d\	-zna-	.	1ryy	.	1ryy	.	.
.	8d/	.	.	.	.	.	.	.	.	.	.	.
.	8g/	.	.	.	.	.	.	.	.	.	.	.
.	8d/J	.	.	.	8c#X\	.	.	.	.	.	.	.
.	8b-/L	.	.	.	4d\)	-jem	.	.	.	.	.	.
.	8g/	.	.	.	.	.	.	.	.	.	.	.
.	8d/	.	.	.	4en\	po-	.	.	.	.	.	.
.	8B-/J	.	.	.	.	.	.	.	.	.	.	.
!!LO:LB:g=original
=40	=40	=40	=40	=40	=40	=40	=40	=40	=40	=40	=40	=40
2D\	8r	1ryy	.	.	2f#X\	-ko-	.	1ryy	.	1ryy	.	.
.	8An/L	.	.	.	.	.	.	.	.	.	.	.
.	8d/	.	.	.	.	.	.	.	.	.	.	.
.	8f#X/J	.	.	.	.	.	.	.	.	.	.	.
2D\	8r	.	.	.	4d\	-ju	.	.	.	.	.	.
.	8A/L	.	.	.	.	.	.	.	.	.	.	.
!	!	!	!	!	!LO:TX:t=P:problem:brak pauzy	!	!	!	!	!	!	!
.	8d/	.	.	.	4ryy	.	.	.	.	.	.	.
.	8f#/J	.	.	.	.	.	.	.	.	.	.	.
=41	=41	=41	=41	=41	=41	=41	=41	=41	=41	=41	=41	=41
!	!	!	!	!	!	!	!LO:DY:b	!	!	!	!	!
1GG 1G	8B-/L	1ryy	.	.	4.d\	Czy	f	1ryy	.	1ryy	.	.
.	8d/	.	.	.	.	.	.	.	.	.	.	.
.	8g/	.	.	.	.	.	.	.	.	.	.	.
.	8d/J	.	.	.	8c#X\	je-	.	.	.	.	.	.
.	8b-/L	.	.	.	4d\	-ste-	.	.	.	.	.	.
.	8g/	.	.	.	.	.	.	.	.	.	.	.
.	8d/	.	.	.	4en\	-śmy	.	.	.	.	.	.
.	8B-/J	.	.	.	.	.	.	.	.	.	.	.
=42	=42	=42	=42	=42	=42	=42	=42	=42	=42	=42	=42	=42
2D\	8r	1ryy	.	.	2f#X\	w bu-	.	1ryy	.	1ryy	.	.
.	8An/L	.	.	.	.	.	.	.	.	.	.	.
.	8d/	.	.	.	.	.	.	.	.	.	.	.
.	8f#X/J	.	.	.	.	.	.	.	.	.	.	.
!LO:TX:t=P:problem:niepełna miara taktu	!	!	!	!	!	!	!	!	!	!	!	!
4D\ 4c\	8r	.	.	.	4f#\	-rzy,	.	.	.	.	.	.
.	8f#/L	.	.	.	.	.	.	.	.	.	.	.
4ryy	8an/	.	.	.	8r	.	.	.	.	.	.	.
.	8dd/J	.	.	.	8d\	Do-	.	.	.	.	.	.
=43	=43	=43	=43	=43	=43	=43	=43	=43	=43	=43	=43	=43
4B-\	(8b-/L 8dd	1ryy	.	.	(4d\	-da-	.	1ryy	.	1ryy	.	.
.	8fn/	.	.	.	.	.	.	.	.	.	.	.
4F\	8a-/ 8ccn	.	.	.	4fn\	-[[jem]]-	.	.	.	.	.	.
.	8f/J)	.	.	.	.	.	.	.	.	.	.	.
4B-\	(8b-/L 8dd	.	.	.	4B-\	-jem	.	.	.	.	.	.
.	8f/	.	.	.	.	.	.	.	.	.	.	.
4E-\	8g/ 8cc	.	.	.	4c\)	.	.	.	.	.	.	.
.	8e-/J)	.	.	.	.	.	.	.	.	.	.	.
=44	=44	=44	=44	=44	=44	=44	=44	=44	=44	=44	=44	=44
2F\	(8f/L 8an	1ryy	.	.	8F\L	wzno-	.	1ryy	.	1ryy	.	.
.	8c/	.	.	.	8An\	.	.	.	.	.	.	.
.	8f/ 8a	.	.	.	8c\J	.	.	.	.	.	.	.
.	8c/J)	.	.	.	8f\	-sząc	.	.	.	.	.	.
4B-\	(8b-/L	.	.	.	4d\	dłoń	.	.	.	.	.	.
.	8d/	.	.	.	.	.	.	.	.	.	.	.
4r	8f/	.	.	.	8r	.	.	.	.	.	.	.
.	8b-/J)	.	.	.	8d\	do	.	.	.	.	.	.
!!LO:PB:g=original
=45	=45	=45	=45	=45	=45	=45	=45	=45	=45	=45	=45	=45
4B-\	(8b-/L 8dd	1ryy	.	.	(4d\	Pa-	.	1ryy	.	1ryy	.	.
.	8f/	.	.	.	.	.	.	.	.	.	.	.
4F\	8an/ 8cc	.	.	.	4f\)	-[[na]]	.	.	.	.	.	.
.	8f/J)	.	.	.	.	.	.	.	.	.	.	.
4B-\	(8b-/L 8dd	.	.	.	4B-\	na	.	.	.	.	.	.
.	8f/	.	.	.	.	.	.	.	.	.	.	.
4E-\	8g/ 8cc	.	.	.	4c\	na-	.	.	.	.	.	.
.	8e-/J)	.	.	.	.	.	.	.	.	.	.	.
=46	=46	=46	=46	=46	=46	=46	=46	=46	=46	=46	=46	=46
2F\	(8f/L 8an	1ryy	.	.	8F\L	-sze-	.	1ryy	.	1ryy	.	.
.	8c/	.	.	.	8An\	.	.	.	.	.	.	.
.	8f/ 8a	.	.	.	8c\	.	.	.	.	.	.	.
.	8c/J)	.	.	.	8f\J	.	.	.	.	.	.	.
4B-\	(8f/L 8b-	.	.	.	4d\	-go	.	.	.	.	.	.
.	8d/	.	.	.	.	.	.	.	.	.	.	.
4E-\	8g/ 8b-	.	.	.	4r	.	.	.	.	.	.	.
.	8e-/J)	.	.	.	.	.	.	.	.	.	.	.
=47	=47	=47	=47	=47	=47	=47	=47	=47	=47	=47	=47	=47
2AA-\ 2A-\	(8a-\L 8cc	1ryy	.	.	2r	.	.	1ryy	.	1ryy	.	.
.	8e-\	.	.	.	.	.	.	.	.	.	.	.
.	8a-\	.	.	.	.	.	.	.	.	.	.	.
.	8cc\J)	.	.	.	.	.	.	.	.	.	.	.
!	!	!	!	!	!LO:TX:a:t=con invocazione	!	!	!	!	!	!	!
!	!	!	!	!	!	!	!LO:DY:b	!	!	!	!	!
2AAn\ 2An\	8r	.	.	.	4e-\	w I-	f	.	.	.	.	.
.	(8e-/L	.	.	.	.	.	.	.	.	.	.	.
!	!	!	!	!	!	!LO:SIC:v:l:s=mię	!	!	!	!	!	!
.	8f#X/	.	.	.	4e-\	-mie	.	.	.	.	.	.
.	8cc/J)	.	.	.	.	.	.	.	.	.	.	.
=48	=48	=48	=48	=48	=48	=48	=48	=48	=48	=48	=48	=48
[1BB- [1B-	8r	1ryy	.	.	4e-\	Oj-	.	1ryy	.	1ryy	.	.
.	(8e-/L	.	.	.	.	.	.	.	.	.	.	.
.	8g/	.	.	.	8c\	-ca	.	.	.	.	.	.
.	8b-/J	.	.	.	8r	.	.	.	.	.	.	.
.	8ee-/L	.	.	.	4e-\	Sy-	.	.	.	.	.	.
.	8b-/	.	.	.	.	.	.	.	.	.	.	.
.	8g/	.	.	.	8f\	-na	.	.	.	.	.	.
.	8e-/J)	.	.	.	8f#X\	i	.	.	.	.	.	.
=49	=49	=49	=49	=49	=49	=49	=49	=49	=49	=49	=49	=49
2BB-\] 2B-\]	8r	1ryy	.	.	4g\	Du-	.	1ryy	.	1ryy	.	.
.	(8dn/L	.	.	.	.	.	.	.	.	.	.	.
.	8f/	.	.	.	8fn\	-cha	.	.	.	.	.	.
.	8a-/J	.	.	.	8B-\	świę-	.	.	.	.	.	.
.	.	.	.	.	8qf/	.	.	.	.	.	.	.
4E-\	8g/L	.	.	.	4e-\	-te-	.	.	.	.	.	.
.	8e-/	.	.	.	.	.	.	.	.	.	.	.
4r	8g/	.	.	.	8e-\	-go	.	.	.	.	.	.
.	8a-/J)	.	.	.	8r	.	.	.	.	.	.	.
!!LO:LB:g=original
=50	=50	=50	=50	=50	=50	=50	=50	=50	=50	=50	=50	=50
!	!	!	!	!	!LO:TX:a:t=Corno	!	!	!LO:TX:a:t=Soli col Cori	!	!	!	!
!	!	!	!	!LO:DY:b	!	!	!	!	!	!	!	!
!	!	!	!	!	!	!	!	!	!	!	!	!LO:DY:b
4E-\	(8g/L 8b-	4E-\	.	p	4G/	.	p	4e-/	p	4b-\	W I-	p
.	8e-/	.	.	.	.	.	.	.	.	.	.	.
!	!	!	!	!	!	!	!	!	!	!	!LO:SIC:v:l:s=mię	!
4BB-/	8f/ 8b-	4BB-/	.	.	4F/	.	.	4d/	.	4b-\	-mie	.
.	8d/J	.	.	.	.	.	.	.	.	.	.	.
4E-\	8g/L 8b-	4E-\	.	.	4G/	.	.	4e-/	.	4b-\	Oj-	.
.	8e-/	.	.	.	.	.	.	.	.	.	.	.
4AA-/	8a-/ 8cc	4AA-/	.	.	4A-/	.	.	4e-/	.	4cc\	-ca	.
.	8e-/J)	.	.	.	.	.	.	.	.	.	.	.
=51	=51	=51	=51	=51	=51	=51	=51	=51	=51	=51	=51	=51
1EE- 1E-	(8g/L 8b-	2E-\	.	.	2G/	.	.	2e-/	.	2b-\	Sy-	.
.	8e-/	.	.	.	.	.	.	.	.	.	.	.
.	8B-/	.	.	.	.	.	.	.	.	.	.	.
.	8e-/J	.	.	.	.	.	.	.	.	.	.	.
.	8e-/L 8g	4E-\	.	.	4B-/	.	.	4e-/	.	4g/	-na	.
.	8B-/	.	.	.	.	.	.	.	.	.	.	.
.	8e-/ 8g	4E-\	.	.	4B-/	.	.	4e-/	.	4g/	i	.
.	8B-/J)	.	.	.	.	.	.	.	.	.	.	.
=52	=52	=52	=52	=52	=52	=52	=52	=52	=52	=52	=52	=52
2BB-/	(8d/L 8b-	2BB-/	.	.	2A-/	.	.	2d/	.	(4b-/	Du-	.
.	8B-/	.	.	.	.	.	.	.	.	.	.	.
.	8d/ 8f	.	.	.	.	.	.	.	.	8f/L	.	.
.	8B-/J 8g	.	.	.	.	.	.	.	.	8g/J)	.	.
2E-\	8e-/L	4E-\	.	.	4G/	.	.	4e-/	.	4e-/	-cha	.
.	8g/	.	.	.	.	.	.	.	.	.	.	.
.	8cc/	4E-\	.	.	8A-/L	.	.	4e-/	.	8cc\L	świę-	.
.	8b-/J)	.	.	.	8G/J	.	.	.	.	8b-\J	.	.
=53	=53	=53	=53	=53	=53	=53	=53	=53	=53	=53	=53	=53
2BB-/	(8b-/L	2BB-/	.	.	(4F/	.	.	2d/	.	4b-/	-te-	.
.	8B-/	.	.	.	.	.	.	.	.	.	.	.
.	8d/ 8f	.	.	.	8B-/L	.	.	.	.	8f/L	.	.
.	8B-/J 8e-	.	.	.	8A-/J)	.	.	.	.	8g/J	.	.
2E-\	8G/L 8e-	4E-\	.	.	4G/	.	.	4e-/	.	4e-/	-go	.
.	8B-/	.	.	.	.	.	.	.	.	.	.	.
.	8e-/	4r	.	.	4r	.	.	4r	.	8r	.	.
!	!	!	!	!	!	!	!	!	!	!LO:TX:a:t=Sopran Solo	!	!
.	8g/J)	.	.	.	.	.	.	.	.	8g/	Czy	.
=54	=54	=54	=54	=54	=54	=54	=54	=54	=54	=54	=54	=54
!	!LO:TX:b:t=Organo Tacet	!	!	!	!	!	!	!	!	!	!	!
1ryy	1ryy	4r	.	.	4r	.	.	1r	.	2.g/	zdro-	.
!	!	!LO:TX:a:t=Bass Solo	!	!	!LO:TX:a:t=Tenor Solo	!	!	!	!	!	!	!
.	.	4G\	Czy	.	4g\	Czy	.	.	.	.	.	.
.	.	4F\	zdro-	.	4Bn\	zdro-	.	.	.	.	.	.
.	.	4E-\	-wia	.	4c\	-wia	.	.	.	4g/	-wia	.
!!LO:LB:g=original
=55	=55	=55	=55	=55	=55	=55	=55	=55	=55	=55	=55	=55
!	!	!	!	!	!LO:TX:t=Soli	!	!	!	!	!	!	!
1ryy	1ryy	4En\	.	.	4d-X/	.	.	1ryy	.	4b-/	cią-	.
.	.	8.E\	.	.	8.d-\	.	.	.	.	8.b-/	-głej	.
!	!	!	!	!	!	!	!	!	!	!	!LO:SIC:v:l:s=roz	!
.	.	16E\	.	.	16d-\	.	.	.	.	16b-/	ros-	.
.	.	8.F\L	.	.	4c\	.	.	.	.	8.a-/L	-ko-	.
.	.	16G\Jk	.	.	.	.	.	.	.	16g/Jk	.	.
.	.	8.A-\	.	.	8.c\	.	.	.	.	8.f/	-szy	.
.	.	16A-\	.	.	16c\	.	.	.	.	16e-/	do-	.
=56	=56	=56	=56	=56	=56	=56	=56	=56	=56	=56	=56	=56
1ryy	1ryy	4G\	.	.	4c\	.	.	1ryy	.	4e-/	-zna-	.
.	.	4G\	.	.	4Bn\	.	.	.	.	4d/	-jem	.
.	.	4r	.	.	4r	.	.	.	.	4r	.	.
.	.	8.G\	.	.	8.G/	.	.	.	.	8.g/	Czy	.
.	.	16G\	.	.	16G/	.	.	.	.	16g/	sła-	.
=57	=57	=57	=57	=57	=57	=57	=57	=57	=57	=57	=57	=57
1ryy	1ryy	2BBn/	.	.	2A-/	.	.	1ryy	.	2f/	-bo-	.
.	.	8C/	.	.	8G/	.	.	.	.	8e-/	-ścią	.
.	.	8r	.	.	8r	.	.	.	.	8r	.	.
.	.	8r	.	.	8r	.	.	.	.	8r	.	.
.	.	8C/	.	.	8c\	.	.	.	.	8cc\	nę-	.
=58	=58	=58	=58	=58	=58	=58	=58	=58	=58	=58	=58	=58
1ryy	1ryy	2En\	.	.	2d-X\	.	.	1ryy	.	2b-\	-ka-	.
.	.	8F\	.	.	8c\	.	.	.	.	8a-/	-ni	.
.	.	8r	.	.	8r	.	.	.	.	8r	.	.
.	.	8.F\	.	.	8.c\	.	.	.	.	8.a-/	Czy	.
.	.	16F\	.	.	16c\	.	.	.	.	16a-/	sła-	.
=59	=59	=59	=59	=59	=59	=59	=59	=59	=59	=59	=59	=59
1ryy	1ryy	4G\	.	.	4c\	.	.	1ryy	.	4g/	-bo-	.
.	.	8G\	.	.	8c\	.	.	.	.	8g/	-ścią,	.
.	.	16r	.	.	16r	.	.	.	.	16r	.	.
.	.	16G\	.	.	16c\	.	.	.	.	16g/	nę-	.
.	.	8.A-\	.	.	8.c\	.	.	.	.	8.f#/	-ka-	.
.	.	16A-\	.	.	16c\	.	.	.	.	16ee-\	-ni	.
.	.	8.A-\	.	.	8.d\	.	.	.	.	8.dd\	jęk	.
.	.	16A-\	.	.	16e-\	.	.	.	.	16cc\	wy-	.
!!LO:PB:g=original
=60	=60	=60	=60	=60	=60	=60	=60	=60	=60	=60	=60	=60
!	!	!	!	!	!LO:TX:t=Soli	!	!	!	!	!	!	!
1ryy	1ryy	4G\	.	.	4e-\	.	.	1ryy	.	4cc\	-da-	.
.	.	8G\	.	.	8d\	.	.	.	.	8bn\	-jem	.
.	.	8r	.	.	8r	.	.	.	.	8r	.	.
.	.	2r	.	.	8.r	.	.	.	.	2r	.	.
.	.	.	.	.	16G/	Wzy-	.	.	.	.	.	.
.	.	.	.	.	8.Bn/	-wa-	.	.	.	.	.	.
.	.	.	.	.	16d/	-my	.	.	.	.	.	.
=61	=61	=61	=61	=61	=61	=61	=61	=61	=61	=61	=61	=61
1ryy	1ryy	8.r	.	.	4g\	za-	.	1ryy	.	8.r	.	.
.	.	16G\	Wzy-	.	.	.	.	.	.	16bn\	Wzy-	.
.	.	8.An\	-wa-	.	8G/	-wsze	.	.	.	8.cc\	-wa-	.
.	.	.	.	.	8r	.	.	.	.	.	.	.
.	.	16Bn\	-my	.	.	.	.	.	.	16dd\	-my	.
.	.	4c\	za-	.	8.G/	I-	.	.	.	4ee-\	za-	.
.	.	.	.	.	16G/	-mie-	.	.	.	.	.	.
.	.	8G\	-wsze	.	8.Bn/	-nia	.	.	.	8dd\	-wsze	.
.	.	8r	.	.	.	.	.	.	.	8r	.	.
.	.	.	.	.	16d\	Two-	.	.	.	.	.	.
=62	=62	=62	=62	=62	=62	=62	=62	=62	=62	=62	=62	=62
1ryy	1ryy	8.G\	I-	.	4g\	-je-	.	1ryy	.	8.bn/	I-	.
.	.	16G\	-mie-	.	.	.	.	.	.	16b/	-mie-	.
.	.	8.An\	-nia	.	8.g\	-go	.	.	.	8.cc\	-nia	.
.	.	16Bn\	Two-	.	16g\	Two-	.	.	.	16dd\	Two-	.
.	.	4c\	-je-	.	4g\	-je-	.	.	.	4ee-\	-je-	.
.	.	8Bn\	-go	.	4g\	-go	.	.	.	8dd\	-go	.
.	.	8r	.	.	.	.	.	.	.	8r	.	.
!!LO:LB:g=original
=63	=63	=63	=63	=63	=63	=63	=63	=63	=63	=63	=63	=63
!	!	!	!	!	!LO:N:vis=8	!	!	!	!	!	!	!
1ryy	1ryy	8.r	.	.	8.r	.	.	1ryy	.	8.r	.	.
.	.	16Bn\	.	.	16g\	.	.	.	.	16dd\	wzy-	.
.	.	8.c\	.	.	8.f#X\	.	.	.	.	8.ee-\	-wa-	.
.	.	16B\	.	.	16g\	.	.	.	.	16dd\	-my	.
.	.	8.F#X\L	.	.	8.e-\	.	.	.	.	8.cc\L	za-	.
.	.	16G\Jk	.	.	16d\	.	.	.	.	16bn\Jk	.	.
.	.	8.E-\	.	.	8.c\	.	.	.	.	8.f#X/	-wsze	.
.	.	16D\	.	.	16Bn\	.	.	.	.	16g/	I-	.
=64	=64	=64	=64	=64	=64	=64	=64	=64	=64	=64	=64	=64
1ryy	1ryy	4C/	.	.	4F#X/	.	.	1ryy	.	4e-/	-mie-	.
.	.	8.C/	.	.	8.F#/	.	.	.	.	8.e-/	-nia	.
.	.	16C/	.	.	16F#/	.	.	.	.	16e-/	I-	.
.	.	4C/	.	.	4F#/	.	.	.	.	4e-/	-mie-	.
.	.	8.C/	.	.	8.F#/	.	.	.	.	8.e-/	-nia	.
.	.	16C/	.	.	16F#/	.	.	.	.	16e-/	Two-	.
=65	=65	=65	=65	=65	=65	=65	=65	=65	=65	=65	=65	=65
1ryy	1ryy	4C/	.	.	4F#X/	.	.	1ryy	.	4e-/	-je-	.
.	.	4BBn/	.	.	4G/	.	.	.	.	4d/	-go	.
.	.	4r	.	.	2r	.	.	.	.	2r	.	.
!	!	!LO:TX:a:t=maestoso	!	!	!	!	!	!	!	!	!	!
.	.	8.G\	W I-	.	.	.	.	.	.	.	.	.
!	!	!	!LO:SIC:v:l:s=mię	!	!	!	!	!	!	!	!	!
.	.	16Fn\	-mie	.	.	.	.	.	.	.	.	.
=66	=66	=66	=66	=66	=66	=66	=66	=66	=66	=66	=66	=66
1ryy	1ryy	2E-\	Oj-	.	4r	.	.	1ryy	.	4r	.	.
!	!	!	!	!	!	!	!	!	!	!LO:TX:a:t=maestoso	!	!
.	.	.	.	.	8.e-\	.	.	.	.	8.g/	W I-	.
.	.	.	.	.	16d\	.	.	.	.	16b-X/	-mię	.
.	.	4E-\	-ca	.	(4d-X\	.	.	.	.	(4ee-\	Oj-	.
.	.	4r	.	.	8.c\)	.	.	.	.	8.e-/)	-[[ca]]-	.
.	.	.	.	.	16c-X\	.	.	.	.	16f/	-ca	.
!!LO:LB:g=original
=67	=67	=67	=67	=67	=67	=67	=67	=67	=67	=67	=67	=67
1r	1r	4E-\	sy-	.	4B-\	.	.	1ryy	.	4g/	Sy-	.
.	.	8E-\	-na	.	8B-\	.	.	.	.	8g/	-na	.
.	.	16r	.	.	16r	.	.	.	.	16r	.	.
.	.	16E-\	i	.	16B-\	.	.	.	.	16g/	i	.
.	.	4E-\	Du-	.	4B-\	.	.	.	.	4g/	Du-	.
.	.	8G\	-cha	.	8B-\	.	.	.	.	8e-/	-cha	.
.	.	16r	.	.	16r	.	.	.	.	16r	.	.
.	.	16G\	i	.	16e-\	.	.	.	.	16b-/	i	.
=68	=68	=68	=68	=68	=68	=68	=68	=68	=68	=68	=68	=68
1r	1r	4G\	Du-	.	4e-\	.	.	1ryy	.	4b-/	Du-	.
.	.	8B-\	-cha	.	8e-\	.	.	.	.	8g/	-cha	.
.	.	16r	.	.	16r	.	.	.	.	16r	.	.
.	.	16BB-/	i	.	16g\	.	.	.	.	16b-\	i	.
.	.	8BB-/L	Du-	.	[2g\	.	.	.	.	[2ee-\	Du-	.
.	.	8E-/	.	.	.	.	.	.	.	.	.	.
.	.	8G/	.	.	.	.	.	.	.	.	.	.
.	.	8E-/J	.	.	.	.	.	.	.	.	.	.
=69	=69	=69	=69	=69	=69	=69	=69	=69	=69	=69	=69	=69
!	!LO:TX:a:t=Organo	!	!	!	!	!	!	!	!	!	!	!
1r	1r	2B-\	-[[ch]]-	.	(4g\]	.	.	1ryy	.	8ee-\L]	.	.
.	.	.	.	.	.	.	.	.	.	8b-\	.	.
.	.	.	.	.	8e-\L	.	.	.	.	8g\	.	.
.	.	.	.	.	8c\J)	.	.	.	.	8a-\J	.	.
.	.	4BB-/	-cha	.	4e-\	.	.	.	.	4f/	-cha	.
.	.	4BB-/	świę-	.	4d\	.	.	.	.	4b-/	świę-	.
=70	=70	=70	=70	=70	=70	=70	=70	=70	=70	=70	=70	=70
!	!	!	!	!	!	!	!	!	!	!	!	!
1r	2r	4BB-/	-te-	.	4d\	.	.	1ryy	.	4a-/	-te-	.
.	.	4E-\	-go	.	4e-\	.	.	.	.	4g/	-go	.
.	16r	2r	.	.	2r	.	.	.	.	2r	.	.
.	(16B-/LL	.	.	.	.	.	.	.	.	.	.	.
.	16c/	.	.	.	.	.	.	.	.	.	.	.
.	16d/JJ	.	.	.	.	.	.	.	.	.	.	.
.	16e-/LL	.	.	.	.	.	.	.	.	.	.	.
.	16f/	.	.	.	.	.	.	.	.	.	.	.
.	16g/	.	.	.	.	.	.	.	.	.	.	.
.	16a-/JJ)	.	.	.	.	.	.	.	.	.	.	.
!!LO:PB:g=original
=71	=71	=71	=71	=71	=71	=71	=71	=71	=71	=71	=71	=71
!	!	!	!	!LO:TX:a:t=Coro	!	!	!LO:DY:t=p.	!	!LO:DY:t=p.	!	!	!
!	!	!	!	!LO:DY:t=p.	!	!	!	!	!LO:DY:a	!	!	!LO:DY:t=p.
1ryy	1ryy	4E-\	.	p	4G/	.	p	4e-/	p	4b-\	W I-	p
!	!	!	!	!	!	!	!	!	!	!	!LO:SIC:v:l:s=mię	!
.	.	4BB-/	.	.	4F/	.	.	4d/	.	4b-\	-mie	.
.	.	4E-\	.	.	4G/	.	.	4e-/	.	4b-\	Oj-	.
.	.	4AA-/	.	.	4A-/	.	.	4e-/	.	4cc\	-ca	.
=72	=72	=72	=72	=72	=72	=72	=72	=72	=72	=72	=72	=72
1ryy	1r	2E-\	.	.	2G/	.	.	2e-/	.	2b-/	Sy-	.
.	.	4E-\	.	.	4B-/	.	.	4e-/	.	4g/	-na	.
.	.	4E-\	.	.	4B-/	.	.	4e-/	.	4g/	i	.
=73	=73	=73	=73	=73	=73	=73	=73	=73	=73	=73	=73	=73
1ryy	1ryy	2BB-/	.	.	(4.A-/	.	.	2d/	.	(4b-/	Du-	.
.	.	.	.	.	.	.	.	.	.	8f/L	.	.
.	.	.	.	.	8B-/	.	.	.	.	8g/J)	.	.
.	.	4E-\	.	.	4G/)	.	.	4e-/	.	4e-/	-cha	.
.	.	4E-\	.	.	8A-/L	.	.	4e-/	.	8cc\L	świę-	.
.	.	.	.	.	8G/J	.	.	.	.	8b-\J	.	.
=74	=74	=74	=74	=74	=74	=74	=74	=74	=74	=74	=74	=74
1ryy	1ryy	2BB-/	.	.	(4F/	.	.	2d/	.	(4b-/	-te-	.
.	.	.	.	.	8B-/L	.	.	.	.	8f/L	.	.
.	.	.	.	.	8A-/J)	.	.	.	.	8g/J	.	.
.	.	8E-\	.	.	8G/	.	.	8e-/	.	8e-/)	-go	.
.	.	8r	.	.	8r	.	.	8r	.	8r	.	.
.	.	4E-\	.	.	4E-/	.	.	4e-/	.	4e-/	Gdy	.
=75	=75	=75	=75	=75	=75	=75	=75	=75	=75	=75	=75	=75
1ryy	1ryy	4.B-\	.	.	4.B-\	.	.	4.b-\	.	4.b-\	więc	.
.	.	8B-\	.	.	8B-\	.	.	8b-\	.	8b-\	zbo-	.
.	.	4B-\	.	.	4B-\	.	.	4b-\	.	4b-\	-la-	.
.	.	8B-\	.	.	8B-\	.	.	8b-\	.	8b-\	-łe	.
.	.	8B-\	.	.	8B-\	.	.	8b-\	.	8b-\	za-	.
!!LO:LB:g=original
=76	=76	=76	=76	=76	=76	=76	=76	=76	=76	=76	=76	=76
1ryy	1ryy	8c\L	.	.	8c\L	.	.	8cc\L	.	8cc\L	-my-	.
.	.	8A-\J	.	.	8A-\J	.	.	8a-\J	.	8a-\J	.	.
.	.	8B-\	.	.	8B-\	.	.	8b-\	.	8b-\	-ka	.
.	.	8c\	.	.	8c\	.	.	8cc\	.	8cc\	po-	.
.	.	8B-\L	.	.	8B-\L	.	.	8b-/L	.	8b-/L	-wie-	.
.	.	8G\J	.	.	8G\J	.	.	8g/J	.	8g/J	.	.
.	.	16B-\	.	.	16B-/	.	.	16b-\	.	16b-\	-ki	.
.	.	16r	.	.	16r	.	.	16r	.	16r	.	.
.	.	8E-\	.	.	8E-/	.	.	8e-/	.	8e-/	do-	.
=77	=77	=77	=77	=77	=77	=77	=77	=77	=77	=77	=77	=77
1ryy	1ryy	4B-\	.	.	4B-\	.	.	4b-\	.	4b-\	-zna-	.
.	.	8B-\	.	.	8B-\	.	.	8b-\	.	8b-\	-jem	.
.	.	8B-\	.	.	8B-\	.	.	8b-\	.	8b-\	i	.
.	.	4B-\	.	.	4B-\	.	.	4b-\	.	4b-\	wte-	.
.	.	4B-\	.	.	4B-\	.	.	4b-\	.	4b-\	-dy	.
=78	=78	=78	=78	=78	=78	=78	=78	=78	=78	=78	=78	=78
1ryy	1ryy	8c\L	.	.	8c\L	.	.	8cc\L	.	8cc\L	Two-	.
.	.	8A-\J	.	.	8A-\J	.	.	8a-\J	.	8a-\J	.	.
.	.	8B-\	.	.	8B-\	.	.	8b-\	.	8b-\	-jej	.
.	.	8c\	.	.	8c\	.	.	8cc\	.	8cc\	o-	.
.	.	8B-\L	.	.	8B-/L	.	.	8b-/L	.	8b-/L	-pie-	.
.	.	8G\J	.	.	8G/J	.	.	8g/J	.	8g/J	.	.
.	.	16B-\	.	.	16B-/	.	.	16b-/	.	16b-/	-ki	.
.	.	16r	.	.	16r	.	.	16r	.	16r	.	.
!	!	!	!	!	!	!	!	!	!	!	!	!LO:DY:b
!	!	!	!	!	!	!	!LO:DY:b	!	!	!	!	!
!	!	!	!	!LO:DY:b	!	!	!	!	!	!	!	!
.	.	8B-\	.	f	8B-/	.	f	8b-/	f	8b-/	I	f
!!LO:LB:g=original
=79	=79	=79	=79	=79	=79	=79	=79	=79	=79	=79	=79	=79
1ryy	1ryy	4.E-\	.	.	4.e-\	.	.	4.g/	.	4.ee-\	mó-	.
.	.	8E-\	.	.	8e-\	.	.	8g/	.	8ee-\	-wim	.
.	.	4E-\	.	.	4d\	.	.	4g/	.	4b-\	scho-	.
.	.	8E-\	.	.	8d-X\	.	.	8g/	.	8b-\	-dząc	.
.	.	8E-\	.	.	8d-\	.	.	8g/	.	8b-\	ze	.
=80	=80	=80	=80	=80	=80	=80	=80	=80	=80	=80	=80	=80
1ryy	1ryy	4.E-\	.	.	4.c\	.	.	4.a-/	.	4.ee-\	świa-	.
.	.	8E-\	.	.	8c\	.	.	8a-/	.	8ee-\	-ta	.
.	.	4E-\	.	.	4c-X\	.	.	4f#X/	.	4an/	te-	.
.	.	8E-\	.	.	8c-\	.	.	8f#/	.	8a/	-go	.
.	.	8r	.	.	8r	.	.	8r	.	8r	.	.
=81	=81	=81	=81	=81	=81	=81	=81	=81	=81	=81	=81	=81
!	!	!	!	!	!	!	!LO:DY:a	!	!	!	!	!
1ryy	1ryy	4E-\	.	p	4e-\	.	p	4g/	p	4b-\	w I-	p
!	!	!	!	!	!	!	!	!	!	!	!LO:SIC:v:l:s=mię	!
.	.	4BB-/	.	.	4d\	.	.	4fn/	.	4b-\	-mie	.
.	.	4E-\	.	.	4e-\	.	.	4g/	.	4b-\	Oj-	.
.	.	4AA-/	.	.	4e-\	.	.	4a-/	.	4cc\	-ca	.
=82	=82	=82-	=82	=82	=82	=82	=82	=82	=82	=82	=82	=82
!	!	!LO:TX:t=P:problem:brak kreski taktowej	!	!	!	!	!	!	!	!	!	!
1ryy	1ryy	2E-/	.	.	2e-\	.	.	2g/	.	2b-/	Sy-	.
.	.	4E-\	.	.	4B-\	.	.	4e-/	.	4g/	-na	.
.	.	4E-\	.	.	4B-\	.	.	4e-/	.	4g/	i	.
!!LO:LB:g=original
=83	=83	=83	=83	=83	=83	=83	=83	=83	=83	=83	=83	=83
1ryy	1ryy	2BB-/	.	.	(4.A-/	.	.	2d/	.	(4b-/	Du-	.
.	.	.	.	.	.	.	.	.	.	8f/L	.	.
.	.	.	.	.	8B-/)	.	.	.	.	8g/J)	.	.
.	.	4E-\	.	.	4G/	.	.	4e-/	.	4e-/	-cha	.
.	.	4E-\	.	.	8A-/L	.	.	4e-/	.	8cc\L	świę-	.
.	.	.	.	.	8G/J	.	.	.	.	8b-\J	.	.
=84	=84	=84	=84	=84	=84	=84	=84	=84	=84	=84	=84	=84
1ryy	1ryy	2BB-/	.	.	(4F/	.	.	2d/	.	(4b-/	-te-	.
.	.	.	.	.	8B-/L	.	.	.	.	8f/L	.	.
.	.	.	.	.	8A-/J)	.	.	.	.	8g/J)	.	.
.	.	4E-\	.	.	4G/	.	.	4e-/	.	4e-/	-go	.
.	.	4r	.	.	4r	.	.	4r	.	4r	.	.
=85	=85	=85	=85	=85	=85	=85	=85	=85	=85	=85	=85	=85
!	!	!	!	!LO:DY:a	!	!	!	!	!LO:DY:a	!	!	!LO:DY:a
1ryy	1ryy	2G\	.	ff	2g\	.	ff	2g/	ff	2gg\	w I-	ff
!	!	!	!	!	!	!	!	!	!	!	!LO:SIC:v:l:s=mię	!
.	.	2E-\	.	.	2e-\	.	.	2e-/	.	2ee-\	-mie	.
=86	=86	=86	=86	=86	=86	=86	=86	=86	=86	=86	=86	=86
1ryy	1ryy	2BB-/	.	.	2B-/	.	.	2b-/	.	2b-/	Oj-	.
.	.	2GG/	.	.	2G/	.	.	2g/	.	2g/	-ca	.
=87	=87	=87	=87	=87	=87	=87	=87	=87	=87	=87	=87	=87
1ryy	1ryy	2EE-/ 2E-	.	.	2E-/	.	.	2e-/	.	2e-/	Sy-	.
.	.	4EE-/ 4E-	.	.	4E-/	.	.	4e-/	.	4e-/	-na	.
.	.	4EE-/ 4E-	.	.	4E-/	.	.	4e-/	.	4e-/	i	.
!!LO:PB:g=original
=88	=88	=88	=88	=88	=88	=88	=88	=88	=88	=88	=88	=88
1ryy	1ryy	2EE-/ 2E-	.	.	2c\	.	.	2e-/	.	2a-/	Du-	.
.	.	4EE-/ 4E-	.	.	4A-\	.	.	4c/	.	4f/	-cha	.
!	!	!	!	!	!	!	!	!	!	!	!LO:SIC:v:l:s=świę	!
.	.	4EE-/ 4E-	.	.	8B-\L	.	.	4d/	.	8g/L	swię-	.
.	.	.	.	.	8A-\J	.	.	.	.	8f/J	.	.
=89	=89	=89	=89	=89	=89	=89	=89	=89	=89	=89	=89	=89
1ryy	1ryy	1EE- 1E-	.	.	(2G/	.	.	(2e-/	.	2e-/	-te-	.
.	.	.	.	.	2A-/)	.	.	2c/)	.	2r	.	.
=90	=90	=90	=90	=90	=90	=90	=90	=90	=90	=90	=90	=90
1ryy	1ryy	2EE-;/ 2E-	.	.	2G;/	.	.	2B-;/	.	2e-;/	-go	.
.	.	2r	.	.	2r	.	.	2r	.	2r	.	.
==	==	==	==	==	==	==	==	==	==	==	==	==
*-	*-	*-	*-	*-	*-	*-	*-	*-	*-	*-	*-	*-
!!!system-decoration: [(s1,s2,s3,s4)][(s5,s6)]
!!!RDF**kern: > = above
!!!RDF**kern: < = below
!!!AIN: 1 alto 1 empty 1 organ 1 soprn 1 tenor
!!!ENC: Anastazja Marusiak
!!!END: 2021-05-04
